!!!!SEGMENT: pl-wnifc--13846--014_anonim--14-na-tem-twardem-szczudle.krn
!!!kernsource:
!!!cenid: 18xx:3236
!!!COM: Anonim
!!!COM-rismid: pe30004985
!!!CDT:
!!!CNT:
!!!GTL: Pieśni polskie i ruskie ludu galicyjskiego
!!!OTL: 14. Na tèm twardèm szczudlè
!!!PDT: 1833
!!!AGN:
!!!SMS-siglum: PL-Wnifc
!!!SMS-shelfmark: 13846
!!!SMS-shelfwork: 014 G
!!!NIFC-rismid: 1001036739
!!!URL-scan: http://repozytorium.nifc.pl/skany/pl-wnifc-nut--13846
!!!ONB-nifc:
!!!key: C
!!!OMD: Tempo di Marcia.
**kern	**kern	**kern	**text
*part2	*part2	*part1	*part1
*staff3	*staff2	*staff1	*staff1
*I"FORTEPIAN.	*I"FORTEPIAN.	*I"GŁOS.	*
*Ipiano	*Ipiano	*Ivox	*
*ICklav	*ICklav	*ICvox	*
*IGacmp	*IGacmp	*IGsolo	*
*clefF4	*clefG2	*clefG2	*
*k[]	*k[]	*k[]	*
*C:	*C:	*C:	*
*M4/4	*M4/4	*M4/4	*
*met(c)	*met(c)	*met(c)	*
!	!	!LO:TX:a:t=C.d.13.	!
4r	8g/L	8g/	Na
.	8g/J	8g/	tém
=1	=1	=1	=1
8C/'L	4.cc/ 4.e/	4.cc\	twar-
8E\'	.	.	.
8G\'	.	.	.
8E\'J	8g/	8g/	-dém
8C/'L	4.ee/ 4.g/	4.ee\	szczu-
8GG/'	.	.	.
8AA/'	.	.	.
8BB/'J	8dd/ 8f/	8dd\	-dlé
!!LO:PB:g=original
=2	=2	=2	=2
4C\	(8dd/L 8f/	(8dd\L	mo-
.	8cc/J 8e/)	8cc\J)	.
8G\L 8C\	8cc/L 8e/	4cc\	-jém
16G\L 16C\	16cc/L 16e/	.	.
16G\JJ 16C\	16cc/JJ 16e/	.	.
4G\ 4C\	4cc/ 4e/	4r	.
4r	8g/L	8g/	o-
.	8g/J	8g/	-be-
=3	=3	=3	=3
8C/L 8CC/	4.cc/ 4.e/	4.cc\	-sze-
8E/ 8EE/	.	.	.
8G/ 8GG/	.	.	.
8E/J 8EE/	8g/	8g/	-dłem
8C/L 8CC/	4.ee/ 4.g/	4.ee\	ka-
8GG/ 8GGG/	.	.	.
8AA/ 8AAA/	.	.	.
8BB/J 8BBB/	8dd/ 8f/	8dd\	-wał'
!!LO:LB:g=original
=4	=4	=4	=4
8C/L 8CC/	(8dd/L 8f/	(8dd\L	zie
8C/	8cc/J 8e/)	8cc\J)	.
8E\	8cc/L 8e/	4cc\	mi
8G\J	8cc/J 8e/	.	.
4C/	4cc/ 4e/	4r	.
4r	(8cc/L 8e/	8cc\	pła-
.	8b/J 8g/)	8b\	-cząc
=5	=5	=5	=5
4C/ 4CC/	4a/ 4f/	4a/	nad
4r	4a/ 4f/	4a/	nie-
4C/ 4CC/	4cc/ 4a/	(4cc\	-szczę-
4r	8b\L 8g\	8b\)	.
.	8a\J 8f\	8a\	-ściem
=6	=6	=6	=6
2C/ 2CC/	8a/L 8f/	(8a/L	mo-
.	8g/J 8e/	8g/J)	.
.	4g/ 4e/	4g/	-jém
4r;	4r;	4r;	.
!!LO:LB:g=original
=	=	=	=
4r	8cc\L 8e\	8cc\	tro-
.	8ee\J 8cc\	8ee\	-ski
=7	=7	=7	=7
2G/ 2GG/	4ee\ 4cc\	4ee\	ze-
.	4dd\ 4b\	4dd\	-mną
4r	4r	4r	.
4C/ 4CC/	8ee\L 8cc\	8ee\	a
.	8gg\J 8ee\	8gg\	ja
=8	=8	=8	=8
2.GG/ 2.GGG/;	4gg\ 4ee\	4gg\	z nie-
.	2ff\ 2dd\;	2ff\;	-mi
4r	8ee\L 8g\	8ee\	tro-
.	8cc\J 8e\	8cc\	-ski
!!LO:LB:g=original
=9	=9	=9	=9
1G/ 1GG/	4dd/ 4f/	4dd\	ze
.	4b\ 4d\	4b\	mną
.	4.cc/ 4.e/	4.cc\	a
.	8g/ 8d/ 8B/	8g/	ja
=10	=10	=10	=10
.	(<8qf/	8qf/	.
*^	*	*	*
2G\ 2C\	2G/	4e/ 4c/)	4e/	z nie-
.	.	4e/ 4c/	4e/	-mi
4r	4r	4r	4r	.
*v	*v	*	*	*
==	==	==	==
*-	*-	*-	*-
!!!system-decoration: s1{(s2,s3)}
!!!RDF**kern: < = below
!!!ENC: Marta Lawrence
!!!END: 2021-11-10
